X:1
T:Move Forward!
T:Move Forward!
T:Daniel Brink Towner
T:George Wallen Crofts, 1886
T:Public Domain Courtesy of the Cyber Hymnal™
C:Daniel Brink Towner
Z:Public Domain
Z:Courtesy of the Cyber Hymnal™
%%score ( 1 2 ) ( 3 4 )
L:1/8
Q:1/4=107
M:6/8
K:G
V:1 treble 
V:2 treble 
V:3 bass 
V:4 bass 
V:1
 [B,D] | [DB]2 [DB] [DA]2 [DB] | [EG]2 [CG] [B,D]2 [B,D] | [CE]2 [EG] (GF)[DG] | %4
w: 1.~Move|for- ward! val- iant|men and strong, Ye|who have prayed * and|
w: 2.~Move|for- ward! each and|ev- ery one, The|gold- en har- * vest|
w: 3.~Move|for- ward! reap- ing|as you move! An-|gels are watch- * ing|
w: 4.~Move|for- ward! day will|die full soon, How|quick- ly ev- * ening|
 [FA]2 [GB] [FA]2 D | [DB]2 [DB] [DA]2 [^DB] | [EG]2 [CG] [B,D]2 [B,D] | ([CE][DF])[DG] (AB)[Dc] | %8
w: la- bored long, The|time has come for|you to rise, For|lo! * the sun * rolls|
w: is be- gun, Ye|reap- ers, come from|glen and glade And|wield * the sick- * le’s|
w: from a- bove! A-|round are wit- ness-|es a host, A-|rouse * ye now * and|
w: fol- lows noon, Now|is the time to|work and pray— Let|glo- * ry crown * the|
 [DB]2 [CA] [B,G]2 ||"^Refrain" [Bd] | [Bd]3 [GB]2 [Bd] | [Bd]3 [GB]3 | [FA]2 [FA] ([FA][GB])[Ac] | %13
w: up the skies.|||||
w: glitt- ering blade.|Move|for- ward, move|for- ward,|All a- long * the|
w: save the lost.|||||
w: dy- ing day.|||||
 [GB]3- [GB]2 [Bd] | [Bd]3 [GB]2 [Bd] | [Bd]3 [GB]2 [GB] | ([FA][GB])[Ac] [GB]2 [FA] | G3- G2 |] %18
w: |||||
w: line, * Move|for- ward, move|for- ward, The|light * be- gins to|shine. *|
w: |||||
w: |||||
V:2
 x | x6 | x6 | x3 D2 x | x5 D | x6 | x6 | x3 D2 x | x5 || x | x6 | x6 | x6 | x6 | x6 | x6 | x6 | %17
 G3- G2 |] %18
V:3
 G, | G,2 G, [D,F,]2 G, | [C,G,]2 [E,G,] G,2 G, | [C,G,]2 [C,G,] ([B,,G,][A,,A,])[G,,B,] | %4
 [D,D]2 [G,D] [D,D]2 [G,B,] | G,2 G, [D,F,]2 [B,,F,] | [C,E,]2 [E,G,] G,2 G, | %7
 (G,A,)[B,,G,] (F,G,)[D,A,] | [D,G,]2 [D,F,] [G,,G,]2 || z | z2 [G,D] ([G,D][G,D]) z | %11
 z2 [G,D] ([G,D] [G,D]2) | [D,D]2 [D,D] [D,D]2 [D,D] | ([G,D]2 [G,D][G,D][G,D]) z | %14
 z2 [G,D] ([G,D][G,D]) z | z2 [G,D] ([G,D][G,D])[G,D] | [D,D]2 [D,D] [D,D]2 [D,C] | %17
 [G,,G,B,]3- [G,,G,B,]2 |] %18
V:4
 G, | G,2 G, x G, x | x3 G,2 G, | x6 | x6 | G,2 G, x3 | x3 G,2 G, | C,2 D,2 x2 | x5 || x | x6 | %11
 x6 | x6 | x6 | x6 | x6 | x6 | x5 |] %18

